_includes/icons/ios-xml.svg

<svg fill="#666" height="50" viewBox="0 0 50 50" width="50" xmlns="http://www.w3.org/2000/svg"><path d="m5.953125 4c-.511719 0-1.03125.1875-1.398437.554688-.367188.367187-.554688.886718-.554688 1.398437v38.09375c0 .507813.1875 1.03125.554688 1.398438.367187.367187.886718.554687 1.398437.554687h38.09375c.507813 0 1.03125-.1875 1.398438-.554687.367187-.367188.554687-.886719.554687-1.398438v-38.09375c0-.511719-.1875-1.03125-.554687-1.398437-.367188-.367188-.886719-.554688-1.398438-.554688zm.046875 2h38v38h-38zm8.351563 13.890625 1.8125 4.933594-1.886719 5.175781h1.945312l.542969-1.828125c.148438-.570312.3125-1.1875.480469-1.832031h.027344c.179687.644531.347656 1.214844.539062 1.800781l.644531 1.859375h2.027344l-1.996094-5.085937 1.890625-5.023438h-1.960937l-.511719 1.84375c-.136719.554688-.253906 1.035156-.421875 1.652344h-.03125c-.164062-.570313-.296875-1.097656-.464844-1.621094l-.582031-1.875zm7.304687 0-.734375 10.109375h1.691406l.167969-3.511719c.058594-1.003906.117188-2.28125.148438-3.375h.042968c.152344 1.09375.421875 2.355469.617188 3.167969l.839844 3.550781h1.394531l.867187-3.613281c.199219-.777344.46875-2.023437.648438-3.105469h.046875c-.03125 1.082032.042969 2.386719.085937 3.347657l.183594 3.539062h1.75l-.609375-10.109375h-2.074219l-.792968 3.660156c-.269532 1.273438-.496094 2.414063-.648438 3.539063h-.027344c-.179687-1.140625-.4375-2.265625-.722656-3.539063l-.808594-3.660156zm9.191406 0v10.109375h4.5625v-1.664062h-2.597656v-8.445313z"/></svg>

<svg xmlns="http://www.w3.org/2000/svg" viewBox="0 0 50 50" width="50" height="50" fill="#666"><path d="M 5.953125 4 C 5.441406 4 4.921875 4.1875 4.554688 4.554688 C 4.1875 4.921875 4 5.441406 4 5.953125 L 4 44.046875 C 4 44.554688 4.1875 45.078125 4.554688 45.445313 C 4.921875 45.8125 5.441406 46 5.953125 46 L 44.046875 46 C 44.554688 46 45.078125 45.8125 45.445313 45.445313 C 45.8125 45.078125 46 44.558594 46 44.046875 L 46 5.953125 C 46 5.441406 45.8125 4.921875 45.445313 4.554688 C 45.078125 4.1875 44.558594 4 44.046875 4 Z M 6 6 L 44 6 L 44 44 L 6 44 Z M 14.351563 19.890625 L 16.164063 24.824219 L 14.277344 30 L 16.222656 30 L 16.765625 28.171875 C 16.914063 27.601563 17.078125 26.984375 17.246094 26.339844 L 17.273438 26.339844 C 17.453125 26.984375 17.621094 27.554688 17.8125 28.140625 L 18.457031 30 L 20.484375 30 L 18.488281 24.914063 L 20.378906 19.890625 L 18.417969 19.890625 L 17.90625 21.734375 C 17.769531 22.289063 17.652344 22.769531 17.484375 23.386719 L 17.453125 23.386719 C 17.289063 22.816406 17.15625 22.289063 16.988281 21.765625 L 16.40625 19.890625 Z M 21.65625 19.890625 L 20.921875 30 L 22.613281 30 L 22.78125 26.488281 C 22.839844 25.484375 22.898438 24.207031 22.929688 23.113281 L 22.972656 23.113281 C 23.125 24.207031 23.394531 25.46875 23.589844 26.28125 L 24.429688 29.832031 L 25.824219 29.832031 L 26.691406 26.21875 C 26.890625 25.441406 27.160156 24.195313 27.339844 23.113281 L 27.386719 23.113281 C 27.355469 24.195313 27.429688 25.5 27.472656 26.460938 L 27.65625 30 L 29.40625 30 L 28.796875 19.890625 L 26.722656 19.890625 L 25.929688 23.550781 C 25.660156 24.824219 25.433594 25.964844 25.28125 27.089844 L 25.253906 27.089844 C 25.074219 25.949219 24.816406 24.824219 24.53125 23.550781 L 23.722656 19.890625 Z M 30.847656 19.890625 L 30.847656 30 L 35.410156 30 L 35.410156 28.335938 L 32.8125 28.335938 L 32.8125 19.890625 Z"/></svg>
